X: 1
T: Muster Foot
M: 4/4
L: 1/8
R: hornpipe
K: Gmaj
|:BA|GDGD BAGD|ADAD cBAD|BDBD dcBd|cBAG FDEF|
GDGD BAGD|ADAD cBAD|BdBG cAFD|G2G2G2:|
|:Bc|dgfe dagf|gfge d2 gf|ecfe dBed|cBAG FAGF|
GDGD BAGD|ADAD cBAD|BdBG cAFD|GBAF G2:|
